X: 028
M: 6/8
L: 1/8
K: G
|:\
|:\
d2d dcd | e2f g3 | cdc BcB | ABc B2G |\
d2d dcd | e2f g3 | cdc BcB | AGF G3 :|

